material/.icons/material/tape-measure.svg

<svg xmlns="http://www.w3.org/2000/svg" viewBox="0 0 24 24"><path d="M9 5a7 7 0 017 7h1v3h-1v4H9a7 7 0 01-7-7 7 7 0 017-7m0 3a4 4 0 00-4 4 4 4 0 004 4 4 4 0 004-4 4 4 0 00-4-4m8 9h5v4h-2v-2h-3v-2z"/></svg>

<?xml version="1.0" encoding="UTF-8"?><!DOCTYPE svg PUBLIC "-//W3C//DTD SVG 1.1//EN" "http://www.w3.org/Graphics/SVG/1.1/DTD/svg11.dtd"><svg xmlns="http://www.w3.org/2000/svg" xmlns:xlink="http://www.w3.org/1999/xlink" version="1.1" id="mdi-tape-measure" width="24" height="24" viewBox="0 0 24 24"><path d="M9,5A7,7 0 0,1 16,12H17V15H16V19H9A7,7 0 0,1 2,12A7,7 0 0,1 9,5M9,8A4,4 0 0,0 5,12A4,4 0 0,0 9,16A4,4 0 0,0 13,12A4,4 0 0,0 9,8M17,17H22V19L22,21H20V19H17V17Z" /></svg>
